X: 11172
T: The FLORA DAY WELCOME
C: R. Bain.
P: Copyright.
%R: march, reel
B: W. Hamilton "Universal Tune-Book" Vol. 1 Glasgow 1844 p.117 #2
S: http://imslp.org/wiki/Hamilton's_Universal_Tune-Book_(Various)
Z: 2016 John Chambers <jc:trillian.mit.edu>
M: C
L: 1/8
K: D
% - - - - - - - - - - - - - - - - - - - - - - - - -
[|\
(3(fef) af (3(fef) af | g2 ee f2 dd |\
(3(fef) af (3(fef) af | g2 ee d2 z2 |\
aa (b/a/).f aa (b/a/).f | g2 (a/g/).e g2 (a/g/).e  |\
aa (b/a/).f aa (b/a/).f | g2 (a/g/).e d2z2 |
.d2 .d2 .d2 z2 | (3(fef) af (3(fef) af |\
g2 ee f2 dd | A2 (B/A/.F) A2 (B/A/.F) |\
A2 F2 D2 z2 | (3(fef) af (3(fef) af |\
g2 ee d2 z2 | .d2 .d2 .d2 z2 |]
% - - - - - - - - - - - - - - - - - - - - - - - - -

%%sep 1 1 500
%%sep 1 1 500

